static/assets/img/icons/theme/map/compass.svg

<svg height="24" viewBox="0 0 24 24" width="24" xmlns="http://www.w3.org/2000/svg"><g fill="none" fill-rule="evenodd"><path d="m0 0h24v24h-24z" opacity="0"/><path d="m12 21c-4.97056275 0-9-4.0294373-9-9 0-4.97056275 4.02943725-9 9-9 4.9705627 0 9 4.02943725 9 9 0 4.9705627-4.0294373 9-9 9zm2.1654881-13.64516255-4.55493633 3.00741505c-.13133436.0867141-.21417741.2302025-.2236068.3872984l-.32702971 5.4483981c-.01654514.2756462.19349783.5125142.4691441.5290593.10799075.006482.21517081-.0222369.30545257-.0818457l4.55493627-3.0074151c.1313344-.0867141.2141774-.2302025.2236068-.3872984l.3270297-5.44839806c.0165452-.27564627-.1934978-.51251422-.4691441-.52905936-.1079907-.00648194-.2151708.02223687-.3054525.08184577z" fill="#000"/></g></svg>

<svg width="24px" height="24px" viewBox="0 0 24 24" version="1.1" xmlns="http://www.w3.org/2000/svg" xmlns:xlink="http://www.w3.org/1999/xlink">
    <title>Icon For Compass</title>
    <g stroke="none" stroke-width="1" fill="none" fill-rule="evenodd">
        <rect opacity="0" x="0" y="0" width="24" height="24"></rect>
        <path d="M12,21 C7.02943725,21 3,16.9705627 3,12 C3,7.02943725 7.02943725,3 12,3 C16.9705627,3 21,7.02943725 21,12 C21,16.9705627 16.9705627,21 12,21 Z M14.1654881,7.35483745 L9.61055177,10.3622525 C9.47921741,10.4489666 9.39637436,10.592455 9.38694497,10.7495509 L9.05991526,16.197949 C9.04337012,16.4735952 9.25341309,16.7104632 9.52905936,16.7270083 C9.63705011,16.7334903 9.74423017,16.7047714 9.83451193,16.6451626 L14.3894482,13.6377475 C14.5207826,13.5510334 14.6036256,13.407545 14.613055,13.2504491 L14.9400847,7.80205104 C14.9566299,7.52640477 14.7465869,7.28953682 14.4709406,7.27299168 C14.3629499,7.26650974 14.2557698,7.29522855 14.1654881,7.35483745 Z" fill="#000000"></path>
    </g>
</svg>
